src/lib/packages/icons/src/assets/filled/calendar-lock.svg

<svg width="24" height="24" viewBox="0 0 24 24" fill="none" xmlns="http://www.w3.org/2000/svg">
<path d="M12.75 12.9951V14.095H11.25V12.9951C11.25 12.5811 11.587 12.2451 12 12.2451C12.413 12.2451 12.75 12.5821 12.75 12.9951ZM21 10.05V18C21 20 20 21 18 21H6C4 21 3 20 3 18V10.05C3 9.88405 3.13405 9.75 3.30005 9.75H20.7C20.866 9.75 21 9.88405 21 10.05ZM15 15.4451C15 14.7751 14.749 14.3561 14.25 14.1851V12.9951C14.25 11.7541 13.24 10.7451 12 10.7451C10.76 10.7451 9.75 11.7541 9.75 12.9951V14.1851C9.251 14.3561 9 14.7751 9 15.4451V17.5449C9 18.4449 9.4501 18.895 10.3501 18.895H13.6499C14.5499 18.895 15 18.4449 15 17.5449V15.4451ZM18 4.5H16.75V3C16.75 2.59 16.41 2.25 16 2.25C15.59 2.25 15.25 2.59 15.25 3V4.5H8.75V3C8.75 2.59 8.41 2.25 8 2.25C7.59 2.25 7.25 2.59 7.25 3V4.5H6C4 4.5 3 5.5 3 7.5V7.94995C3 8.11595 3.13405 8.25 3.30005 8.25H20.7C20.866 8.25 21 8.11595 21 7.94995V7.5C21 5.5 20 4.5 18 4.5Z" fill="currentColor"/>
</svg>

<svg xmlns="http://www.w3.org/2000/svg" width="24" height="24" fill="none"><path fill="currentColor" d="M12.75 12.995v1.1h-1.5v-1.1a.75.75 0 0 1 1.5 0ZM21 10.05V18c0 2-1 3-3 3H6c-2 0-3-1-3-3v-7.95a.3.3 0 0 1 .3-.3h17.4a.3.3 0 0 1 .3.3Zm-6 5.395c0-.67-.251-1.089-.75-1.26v-1.19c0-1.24-1.01-2.25-2.25-2.25a2.253 2.253 0 0 0-2.25 2.25v1.19c-.499.171-.75.59-.75 1.26v2.1c0 .9.45 1.35 1.35 1.35h3.3c.9 0 1.35-.45 1.35-1.35v-2.1ZM18 4.5h-1.25V3c0-.41-.34-.75-.75-.75s-.75.34-.75.75v1.5h-6.5V3c0-.41-.34-.75-.75-.75s-.75.34-.75.75v1.5H6c-2 0-3 1-3 3v.45a.3.3 0 0 0 .3.3h17.4a.3.3 0 0 0 .3-.3V7.5c0-2-1-3-3-3Z"/></svg>
